papirus/22x22/apps/gmail.svg

<svg height="22" preserveAspectRatio="xMidYMid" viewBox="0 0 22 22" width="22" xmlns="http://www.w3.org/2000/svg" xmlns:xlink="http://www.w3.org/1999/xlink"><linearGradient id="a" gradientTransform="matrix(.09442676 0 0 .06431376 .9831095 3.9999978)" gradientUnits="userSpaceOnUse" x1="1.3210427" x2="211.76385" y1="127.76156" y2="127.76156"><stop offset="0" stop-opacity=".1"/><stop offset="1" stop-opacity=".2"/></linearGradient><path d="m19.75 18.999998h-17.4999999c-.6785714 0-1.25-.548349-1.25-1.238208v-12.5235845c0-.67217.5535714-1.2382075 1.25-1.2382075h17.4999999c.678571 0 1.25.548349 1.25 1.2382075v12.5235845c0 .689859-.553572 1.238208-1.25 1.238208z" fill="#e3e3e3"/><path d="m3.4988951 18.982413l7.4710199-5.926142.053492-.316531-7.7028179-5.468933-.0178306 11.447831z" fill="#231f20" opacity=".1"/><path d="m19.724609 4.4746074c-.695393 0-1.724609.687578-1.724609 1.3733926v13.13442.01758h1.724609c.695394 0 1.275391-.544654 1.275391-1.230469v-12.521484c0-.685815-.579997-.7734376-1.275391-.7734396z" fill="#d54b3d"/><path d="m2.2439976 4.4921874c-.6082952 0-1.10667.095277-1.2196626.5820311-.01576.06789-.024335.1435935-.024335.227539v12.4677735c0 .685815.5508606 1.230469 1.2439976 1.230469h1.7560024v-12.8986505c0-.083528-.00889-.1597405-.025308-.227539-.1129946-.4867515-1.1224006-1.3816232-1.7306944-1.3816231z" fill="#d54b3d"/><path d="m14 19l-13-12 .8049885-.924973 9.2362485 6.559203 9.931642-7.1823505v12.3171685c0 .668231-.552749 1.230952-1.248142 1.230952z" fill="url(#a)"/><path d="m19.78125 4.0058594a1.50015 1.50015 0 0 0 -.703125.3105468l-8.078125 6.2832028-8.078125-6.2832028a1.5002492 1.5002492 0 0 0 -.765625-.3066406c-.6508542.0489225-1.15625.5873817-1.15625 1.2285156v1.3789063a1.5002492 1.5002492 0 0 0  .078125.066406l9 7.0000005a1.50015 1.50015 0 0 0 1.84375 0l9-7.0000005a1.50015 1.50015 0 0 0  .078125-.0644529v-1.3808594c0-.6787099-.554671-1.2150894-1.21875-1.2324218z" fill="#d54b3d" fill-rule="evenodd" overflow="visible"/><path d="m1 17.261717v.5c0 .689858.5714286 1.238281 1.25 1.238281h17.5c.696428 0 1.25-.548423 1.25-1.238281v-.5c0 .689858-.553572 1.238281-1.25 1.238281h-17.5c-.6785714 0-1.25-.548423-1.25-1.238281z" opacity=".3"/><path d="m2.25 3.999998c-.6964285 0-1.25.5661115-1.25 1.238281v.5c0-.6721695.5535715-1.238281 1.25-1.238281h17.5c.678571 0 1.25.548423 1.25 1.238281v-.5c0-.689858-.571429-1.238281-1.25-1.238281z" fill="#fff" opacity=".1"/></svg>

<?xml version="1.0" encoding="UTF-8" standalone="no"?>
<svg
   xmlns:dc="http://purl.org/dc/elements/1.1/"
   xmlns:cc="http://creativecommons.org/ns#"
   xmlns:rdf="http://www.w3.org/1999/02/22-rdf-syntax-ns#"
   xmlns:svg="http://www.w3.org/2000/svg"
   xmlns="http://www.w3.org/2000/svg"
   xmlns:sodipodi="http://sodipodi.sourceforge.net/DTD/sodipodi-0.dtd"
   xmlns:inkscape="http://www.inkscape.org/namespaces/inkscape"
   width="22"
   height="22"
   viewBox="0 0 22 22"
   version="1.1"
   preserveAspectRatio="xMidYMid"
   id="svg2"
   inkscape:version="0.91 r13725"
   sodipodi:docname="gmail.svg">
  <metadata
     id="metadata33">
    <rdf:RDF>
      <cc:Work
         rdf:about="">
        <dc:format>image/svg+xml</dc:format>
        <dc:type
           rdf:resource="http://purl.org/dc/dcmitype/StillImage" />
        <dc:title></dc:title>
      </cc:Work>
    </rdf:RDF>
  </metadata>
  <sodipodi:namedview
     pagecolor="#ffffff"
     bordercolor="#666666"
     borderopacity="1"
     objecttolerance="10"
     gridtolerance="10"
     guidetolerance="10"
     inkscape:pageopacity="0"
     inkscape:pageshadow="2"
     inkscape:window-width="1600"
     inkscape:window-height="849"
     id="namedview31"
     showgrid="false"
     inkscape:zoom="11.420324"
     inkscape:cx="18.711863"
     inkscape:cy="6.5849452"
     inkscape:window-x="0"
     inkscape:window-y="30"
     inkscape:window-maximized="1"
     inkscape:current-layer="svg2" />
  <defs
     id="defs4">
    <linearGradient
       x1="1.3210427"
       y1="127.76156"
       x2="211.76385"
       y2="127.76156"
       id="linearGradient-1"
       gradientTransform="matrix(0.09442676,0,0,0.06431376,0.9831095,3.9999978)"
       gradientUnits="userSpaceOnUse">
      <stop
         stop-color="#000000"
         stop-opacity="0.1"
         offset="0%"
         id="stop7" />
      <stop
         stop-color="#000000"
         stop-opacity="0.2"
         offset="100%"
         id="stop9" />
    </linearGradient>
  </defs>
  <g
     id="g4152">
    <path
       d="m 19.75,18.999998 -17.4999999,0 c -0.6785714,0 -1.25,-0.548349 -1.25,-1.238208 l 0,-12.5235845 c 0,-0.67217 0.5535714,-1.2382075 1.25,-1.2382075 l 17.4999999,0 c 0.678571,0 1.25,0.548349 1.25,1.2382075 L 21,17.76179 c 0,0.689859 -0.553572,1.238208 -1.25,1.238208 l 0,0 z"
       id="path13"
       inkscape:connector-curvature="0"
       style="fill:#e3e3e3" />
    <path
       d="M 3.4988951,18.982413 10.969915,13.056271 11.023407,12.73974 3.3205891,7.270807 3.3027585,18.718638 3.4988951,18.982413 Z"
       id="path15"
       inkscape:connector-curvature="0"
       style="opacity:0.1;fill:#231f20" />
    <path
       sodipodi:nodetypes="ssccssss"
       id="path21"
       d="M 19.724609,4.4746074 C 19.029216,4.4746074 18,5.1621854 18,5.848 L 18,18.98242 18,19 19.724609,19 C 20.420003,19 21,18.455346 21,17.769531 L 21,5.248047 C 21,4.562232 20.420003,4.4746094 19.724609,4.4746074 Z"
       style="fill:#d54b3d"
       inkscape:connector-curvature="0" />
    <path
       sodipodi:nodetypes="ssssscscs"
       id="path17"
       d="m 2.2439976,4.4921874 c -0.6082952,0 -1.10667,0.095277 -1.2196626,0.5820311 C 1.008575,5.1421085 1,5.217812 1,5.3017575 L 1,17.769531 C 1,18.455346 1.5508606,19 2.2439976,19 L 4,19 4,6.1013495 C 4,6.0178215 3.99111,5.941609 3.974692,5.8738105 3.8616974,5.387059 2.8522914,4.4921873 2.2439976,4.4921874 Z"
       style="fill:#d54b3d"
       inkscape:connector-curvature="0" />
    <path
       sodipodi:nodetypes="cccccssc"
       d="M 14,19 1,7 1.8049885,6.075027 l 9.2362485,6.559203 9.931642,-7.1823505 0,12.3171685 C 20.972879,18.437279 20.42013,19 19.724737,19 Z"
       id="path25"
       style="fill:url(#linearGradient-1)"
       inkscape:connector-curvature="0" />
    <path
       id="path4161"
       d="M 19.78125,4.0058594 A 1.50015,1.50015 0 0 0 19.078125,4.3164062 L 11,10.599609 2.921875,4.3164062 A 1.5002492,1.5002492 0 0 0 2.15625,4.0097656 C 1.5053958,4.0586881 1,4.5971473 1,5.2382812 l 0,1.3789063 a 1.5002492,1.5002492 0 0 0 0.078125,0.066406 l 9,7.0000005 a 1.50015,1.50015 0 0 0 1.84375,0 l 9,-7.0000005 A 1.50015,1.50015 0 0 0 21,6.6191406 L 21,5.2382812 C 21,4.5595713 20.445329,4.0231918 19.78125,4.0058594 Z"
       style="color:#000000;font-style:normal;font-variant:normal;font-weight:normal;font-stretch:normal;font-size:medium;line-height:normal;font-family:sans-serif;text-indent:0;text-align:start;text-decoration:none;text-decoration-line:none;text-decoration-style:solid;text-decoration-color:#000000;letter-spacing:normal;word-spacing:normal;text-transform:none;direction:ltr;block-progression:tb;writing-mode:lr-tb;baseline-shift:baseline;text-anchor:start;white-space:normal;clip-rule:nonzero;display:inline;overflow:visible;visibility:visible;opacity:1;isolation:auto;mix-blend-mode:normal;color-interpolation:sRGB;color-interpolation-filters:linearRGB;solid-color:#000000;solid-opacity:1;fill:#d54b3d;fill-opacity:1;fill-rule:evenodd;stroke:none;stroke-width:3;stroke-linecap:round;stroke-linejoin:round;stroke-miterlimit:4;stroke-dasharray:none;stroke-dashoffset:0;stroke-opacity:1;color-rendering:auto;image-rendering:auto;shape-rendering:auto;text-rendering:auto;enable-background:accumulate"
       inkscape:connector-curvature="0" />
    <path
       id="path4175"
       d="m 1,17.261717 0,0.5 c 0,0.689858 0.5714286,1.238281 1.25,1.238281 l 17.5,0 c 0.696428,0 1.25,-0.548423 1.25,-1.238281 l 0,-0.5 c 0,0.689858 -0.553572,1.238281 -1.25,1.238281 l -17.5,0 C 1.5714286,18.499998 1,17.951575 1,17.261717 Z"
       style="opacity:0.3;fill:#000000;fill-opacity:1"
       inkscape:connector-curvature="0" />
    <path
       id="path4180"
       d="M 2.25,3.999998 C 1.5535715,3.999998 1,4.5661095 1,5.238279 l 0,0.5 C 1,5.0661095 1.5535715,4.499998 2.25,4.499998 l 17.5,0 c 0.678571,0 1.25,0.548423 1.25,1.238281 l 0,-0.5 C 21,4.548421 20.428571,3.999998 19.75,3.999998 l -17.5,0 z"
       style="opacity:0.1;fill:#ffffff;fill-opacity:1"
       inkscape:connector-curvature="0" />
  </g>
</svg>
